img/logo-symbol-5.svg

<svg fill="none" height="56" viewBox="0 0 48 56" width="48" xmlns="http://www.w3.org/2000/svg" xmlns:xlink="http://www.w3.org/1999/xlink"><clipPath id="a"><path d="m0 .779297h47.6631v55h-47.6631z"/></clipPath><g clip-path="url(#a)"><path d="m23.806.779297 23.8059 13.744403v27.4888l-23.8059 13.7441-23.806-13.7441v-27.4888z" fill="#fff"/><g fill="#000"><path d="m39.957 42.0198 3.8532-2.2278v-16.4744l-3.8532 2.2278z"/><path d="m37.107 43.6678-3.8004 2.1972v-16.4744l3.8004-2.1972z"/><path d="m26.6562 49.7103v-16.4745l3.8004-2.1972v16.4744z"/><path clip-rule="evenodd" d="m23.806.779297 23.8059 13.744403v27.4888l-23.8059 13.7441-23.806-13.7441v-27.4888zm-.0001 1.108443 22.8557 13.19576h-11.0019l-11.8538 13.1958-22.855799-13.1958zm-22.855804 16.46836.000005 23.119 22.855799 13.1957 22.8557-13.1957v-23.119l-22.8557 13.1957z" fill-rule="evenodd"/></g></g></svg>

<svg width="48" height="56" viewBox="0 0 48 56" fill="none" xmlns="http://www.w3.org/2000/svg">
<g clip-path="url(#clip0_3527_3747)">
<path d="M23.806 0.779297L47.6119 14.5237V42.0125L23.806 55.7566L0 42.0125V14.5237L23.806 0.779297Z" fill="white"/>
<path d="M39.957 42.0198L43.8102 39.792V23.3176L39.957 25.5454V42.0198Z" fill="black"/>
<path d="M37.107 43.6678L33.3066 45.865V29.3906L37.107 27.1934V43.6678Z" fill="black"/>
<path d="M26.6562 49.7103V33.2358L30.4566 31.0386V47.513L26.6562 49.7103Z" fill="black"/>
<path fill-rule="evenodd" clip-rule="evenodd" d="M23.806 0.779297L47.6119 14.5237V42.0125L23.806 55.7566L0 42.0125V14.5237L23.806 0.779297ZM23.8059 1.88774L46.6616 15.0835H35.6597L23.8059 28.2793L0.950101 15.0835L23.8059 1.88774ZM0.950096 18.3561L0.950101 41.4751L23.8059 54.6708L46.6616 41.4751V18.3561L23.8059 31.5518L0.950096 18.3561Z" fill="black"/>
</g>
<defs>
<clipPath id="clip0_3527_3747">
<rect width="47.6631" height="55" fill="white" transform="translate(0 0.779297)"/>
</clipPath>
</defs>
</svg>
